X:35
T:Good Humoured and Fairly Tipsy
M:3/4
L:1/4
Q:200
K:D
D | F G A | d c B | A> BA/G/ | F2 D |
F G A | B c d | {f}e d c | d2 :|
|: d/e/ | f f e | d2 c | d d/f/e/g/ | f2 {ef}e |
d d/>e/c/>d/ | B B/>c/A/>B/ | G/F/G/B/A/G/ | F/G/F/E/ D |
F G A | B c d | e/>f/ d c | d2 :|
